Leslie-updated-tokens/busd.svg

<svg width="200" height="200" viewBox="0 0 200 200" fill="none" xmlns="http://www.w3.org/2000/svg">
<rect width="200" height="200" fill="white"/>
<path d="M50.1309 100.065L26.4006 76.3345L2.67036 100.065L26.4006 123.795L50.1309 100.065Z" fill="#F0B90A"/>
<path d="M123.738 26.4302L100.008 2.69995L38.8861 63.8217L62.6164 87.5519L123.738 26.4302Z" fill="#F0B90A"/>
<path d="M160.33 63.0539L136.6 39.3236L38.9067 137.017L62.6369 160.747L160.33 63.0539Z" fill="#F0B90A"/>
<path d="M197.272 99.9644L173.541 76.2341L75.8483 173.927L99.5786 197.657L197.272 99.9644Z" fill="#F0B90A"/>
</svg>

<svg xmlns="http://www.w3.org/2000/svg" width="200" height="200" fill="currentColor" viewBox="0 0 200 200">
  <g clip-path="url(#a)">
    <path fill="#fff" d="M200 0H0v200h200V0Z"/>
    <path fill="#F0B90A" d="m50.131 100.065-23.73-23.73-23.73 23.73 23.73 23.73 23.73-23.73Zm73.607-73.635L100.008 2.7 38.886 63.822l23.73 23.73 61.122-61.122Zm36.592 36.624-23.73-23.73-97.693 97.693 23.73 23.73 97.693-97.693Zm36.942 36.91-23.731-23.73-97.693 97.693 23.73 23.73 97.694-97.693Z"/>
  </g>
  <defs>
    <clipPath id="a">
      <path fill="#fff" d="M0 0h200v200H0z"/>
    </clipPath>
  </defs>
</svg>
